X:1
T:The Division Flute
T:Readings Ground
T:The Division Flute
T:John Walsh (1665 – 1736)
C:John Walsh
L:1/8
M:3/4
K:F
V:1 treble nm="Piano" snm="Pno."
V:1
 f2 a4 | (g3 f/g/) a2 | d2 e2 f2 | g3 (f/e/) f2 || f2 c'4 | c'3 b a2 | c'2 b2 a2 | g3 (f/e/) f2 || %8
 a2 f2 a2 | g2 e2 a2 | d2 e2 f2 | g3 (f/e/) f2 || c'2 a2 d'2 | b2 g2 c'2 | a2 g2 a2 | %15
 g3 (f/e/) f2 || f>g a2 g>f | e>f g2 f>e | d>e f2 g2 | g3 (f/e/) f2 || a>b c'2 b>a | g>a b2 a>g | %22
 f>g a>c' b>a | g3 (f/e/) f2 || z2 a2 f2 | z2 g2 a2 | z2 d2 f2 | g3 (f/e/) f2 || z2 c'2 a2 | %29
 z2 d'2 g2 | z2 c'2 a2 | g3 (f/e/) f2 || f>g a>f c>a | g>e f>g a>c | d>e f>A G>f | e>g f>e f>F || %36
 a>b c'>a f>a | b>c' d'>g e>g | a>b c'>a f>a | g>f e>g f>F || z2 (ag) (ag) | z2 (gf) (ga) | %42
 z2 (de) (fg) | g3 (f/e/) f2 || z2 (c'b) (c'b) | z2 (d'c') (d'g) | z2 (c'b) (c'a) | g3 (f/e/) f2 || %48
 f/g/f/g/ a>f c>a | g>e f/g/f/g/ a>c | d/c/d/e/ f>A G>g | e>g f/g/f/e/ fF || a/b/a/b/ c'>a f>a | %53
 b/a/b/c'/ d'>g e>g | a/b/a/b/ c'>a f>a | g>f e>g fF || a6 | (g3 f/g/) a2 | d2 e2 f2 | %59
 g3 (f/e/) f2 | F2 c'4 | G2 b4 | F2 a4 | g3 (f/e/) f2 || f3 g e2 | f3 g a2 | b3 c' d'2 | b4 a2 | %68
 b3 a g2 | a3 b c'2 | c'3 d' ^b2 | c'6 || g3 f e2 | f3 g a2 | c3 b c'2 | a4 g2 | c'3 b a2 | %77
 g3 c' b2 | a3 b g2 | f6 |] %80

